public/waves.svg

<?xml version="1.0" encoding="UTF-8" standalone="no"?>
<svg
   id="wave"
   viewBox="0 0 1828 140"
   version="1.1"
   sodipodi:docname="waves.svg"
   width="1828"
   height="140"
   inkscape:version="1.1.1 (3bf5ae0d25, 2021-09-20)"
   xmlns:inkscape="http://www.inkscape.org/namespaces/inkscape"
   xmlns:sodipodi="http://sodipodi.sourceforge.net/DTD/sodipodi-0.dtd"
   xmlns="http://www.w3.org/2000/svg"
   xmlns:svg="http://www.w3.org/2000/svg">
  <sodipodi:namedview
     id="namedview12"
     pagecolor="#ffffff"
     bordercolor="#111111"
     borderopacity="1"
     inkscape:pageshadow="0"
     inkscape:pageopacity="0"
     inkscape:pagecheckerboard="1"
     showgrid="false"
     inkscape:zoom="0.39201389"
     inkscape:cx="1057.3605"
     inkscape:cy="65.048716"
     inkscape:window-width="1536"
     inkscape:window-height="793"
     inkscape:window-x="-8"
     inkscape:window-y="-8"
     inkscape:window-maximized="1"
     inkscape:current-layer="wave" />
  <defs
     id="defs7">
    <linearGradient
       id="sw-gradient-0"
       x1="0"
       x2="0"
       y1="482.80643"
       y2="133.13431"
       gradientTransform="matrix(3.2501061,0,0,0.15602308,-8.0600813,31.807403)"
       gradientUnits="userSpaceOnUse">
      <stop
         stop-color="rgba(72.869, 87.596, 123.316, 1)"
         offset="0%"
         id="stop2" />
      <stop
         stop-color="rgba(59.808, 2.167, 232.602, 1)"
         offset="100%"
         id="stop4" />
    </linearGradient>
    <clipPath
       clipPathUnits="userSpaceOnUse"
       id="clipPath853">
      <rect
         style="opacity:0.988372;fill:#e2d410;fill-opacity:0.134658;stroke:#e3dbdb;stroke-width:3.40157"
         id="rect855"
         width="1438.7245"
         height="94.384415"
         x="0"
         y="22.95837" />
    </clipPath>
  </defs>
  <path
     style="opacity:1;fill:url(#sw-gradient-0)"
     fill="url(#sw-gradient-0)"
     d="M 0,117 26.7,104 C 53.3,91 107,65 160,60.7 213.3,56 267,74 320,82.3 373.3,91 427,91 480,75.8 533.3,61 587,30 640,32.5 693.3,35 747,69 800,82.3 853.3,95 907,87 960,75.8 1013.3,65 1067,52 1120,47.7 c 53.3,-4.7 107,0.3 160,13 53.3,13.3 107,34.3 160,26 53.3,-8.7 107,-47.7 160,-49.9 53.3,-1.8 107,32.2 160,47.7 53.3,15.5 107,10.5 160,8.7 53.3,-2.2 107,-2.2 160,2.1 53.3,4.7 107,12.7 160,15.2 53.3,2.5 107,-2.5 160,-10.8 53.3,-8.7 107,-21.7 160,-28.2 53.3,-6.5 107,-6.5 160,-6.5 53.3,0 107,0 160,-8.7 53.3,-8.3 107,-26.3 160,-17.3 53.3,9 107,43 160,54.2 53.3,10.8 107,-2.2 160,-19.5 53.3,-17.7 107,-38.7 160,-36.9 53.3,2.2 107,28.2 160,41.2 53.3,13 107,13 133,13 h 27 v 39 h -26.7 c -26.6,0 -80.3,0 -133.3,0 -53.3,0 -107,0 -160,0 -53.3,0 -107,0 -160,0 -53.3,0 -107,0 -160,0 -53.3,0 -107,0 -160,0 -53.3,0 -107,0 -160,0 -53.3,0 -107,0 -160,0 -53.3,0 -107,0 -160,0 -53.3,0 -107,0 -160,0 -53.3,0 -107,0 -160,0 -53.3,0 -107,0 -160,0 -53.3,0 -107,0 -160,0 -53.3,0 -107,0 -160,0 -53.3,0 -107,0 -160,0 -53.3,0 -107,0 -160,0 -53.3,0 -107,0 -160,0 -53.3,0 -107,0 -160,0 -53.3,0 -107,0 -160,0 -53.3,0 -107,0 -160,0 -53.3,0 -107,0 -160,0 -53.3,0 -107,0 -160,0 -53.3,0 -107,0 -160,0 -53.3,0 -107,0 -160,0 -53.3,0 -107,0 -133,0 H 0 Z"
     id="path9"
     clip-path="url(#clipPath853)"
     transform="matrix(1.2659575,0,0,1.5577383,10.20372,-49.547609)" />
</svg>

<?xml version="1.0" standalone="no"?>
<svg xmlns:xlink="http://www.w3.org/1999/xlink" id="wave" style="transform:rotate(0deg); transition: 0.3s" viewBox="0 0 1440 130" version="1.1" xmlns="http://www.w3.org/2000/svg"><defs><linearGradient id="sw-gradient-0" x1="0" x2="0" y1="1" y2="0"><stop stop-color="rgba(72.869, 87.596, 123.316, 1)" offset="0%"/><stop stop-color="rgba(59.808, 2.167, 232.602, 1)" offset="100%"/></linearGradient></defs><path style="transform:translate(0, 0px); opacity:1" fill="url(#sw-gradient-0)" d="M0,117L26.7,104C53.3,91,107,65,160,60.7C213.3,56,267,74,320,82.3C373.3,91,427,91,480,75.8C533.3,61,587,30,640,32.5C693.3,35,747,69,800,82.3C853.3,95,907,87,960,75.8C1013.3,65,1067,52,1120,47.7C1173.3,43,1227,48,1280,60.7C1333.3,74,1387,95,1440,86.7C1493.3,78,1547,39,1600,36.8C1653.3,35,1707,69,1760,84.5C1813.3,100,1867,95,1920,93.2C1973.3,91,2027,91,2080,95.3C2133.3,100,2187,108,2240,110.5C2293.3,113,2347,108,2400,99.7C2453.3,91,2507,78,2560,71.5C2613.3,65,2667,65,2720,65C2773.3,65,2827,65,2880,56.3C2933.3,48,2987,30,3040,39C3093.3,48,3147,82,3200,93.2C3253.3,104,3307,91,3360,73.7C3413.3,56,3467,35,3520,36.8C3573.3,39,3627,65,3680,78C3733.3,91,3787,91,3813,91L3840,91L3840,130L3813.3,130C3786.7,130,3733,130,3680,130C3626.7,130,3573,130,3520,130C3466.7,130,3413,130,3360,130C3306.7,130,3253,130,3200,130C3146.7,130,3093,130,3040,130C2986.7,130,2933,130,2880,130C2826.7,130,2773,130,2720,130C2666.7,130,2613,130,2560,130C2506.7,130,2453,130,2400,130C2346.7,130,2293,130,2240,130C2186.7,130,2133,130,2080,130C2026.7,130,1973,130,1920,130C1866.7,130,1813,130,1760,130C1706.7,130,1653,130,1600,130C1546.7,130,1493,130,1440,130C1386.7,130,1333,130,1280,130C1226.7,130,1173,130,1120,130C1066.7,130,1013,130,960,130C906.7,130,853,130,800,130C746.7,130,693,130,640,130C586.7,130,533,130,480,130C426.7,130,373,130,320,130C266.7,130,213,130,160,130C106.7,130,53,130,27,130L0,130Z"/></svg>
